src/assets/svg/icons/fa/nuevos/classic/duotone/house-window classic duotone.svg

<svg xmlns="http://www.w3.org/2000/svg" viewBox="0 0 576 512"><defs><style>.fa-secondary{opacity:.4}</style></defs><path class="fa-primary" d="M266.9 7.918C278.1-2.639 297-2.639 309.1 7.918L565.1 231.9C578.4 243.6 579.7 263.8 568.1 277.1C556.4 290.4 536.2 291.7 522.9 280.1L288 74.52L53.07 280.1C39.77 291.7 19.56 290.4 7.917 277.1C-3.72 263.8-2.372 243.6 10.93 231.9L266.9 7.918z"/><path class="fa-secondary" d="M64.07 448L64.02 270.5L288 74.52L512.1 270.6L512.5 447.9C512.6 483.3 483.9 512 448.5 512H128.1C92.74 512 64.09 483.4 64.07 448L64.07 448zM248 240C234.7 240 224 250.7 224 264V344C224 357.3 234.7 368 248 368H328C341.3 368 352 357.3 352 344V264C352 250.7 341.3 240 328 240H248z"/></svg>

<svg xmlns="http://www.w3.org/2000/svg" viewBox="0 0 576 512"><!--! Font Awesome Pro 6.4.0 by @fontawesome - https://fontawesome.com License - https://fontawesome.com/license (Commercial License) Copyright 2023 Fonticons, Inc. --><defs><style>.fa-secondary{opacity:.4}</style></defs><path class="fa-primary" d="M266.9 7.9C279-2.6 297-2.6 309.1 7.9l256 224c13.3 11.6 14.6 31.9 3 45.2s-31.9 14.6-45.2 3L288 74.5 53.1 280.1c-13.3 11.6-33.5 10.3-45.2-3s-10.3-33.5 3-45.2l256-224z"/><path class="fa-secondary" d="M64.1 448L64 270.5l224-196L512.1 270.6l.4 177.3c.1 35.4-28.6 64.1-64 64.1H128.1c-35.3 0-64-28.6-64-64zM248 240c-13.3 0-24 10.7-24 24v80c0 13.3 10.7 24 24 24h80c13.3 0 24-10.7 24-24V264c0-13.3-10.7-24-24-24H248z"/></svg>
